svg/color/gut.svg

<?xml version="1.0" encoding="UTF-8" ?>
<!DOCTYPE svg PUBLIC "-//W3C//DTD SVG 1.1//EN" "http://www.w3.org/Graphics/SVG/1.1/DTD/svg11.dtd">
<svg width="250pt" height="250pt" viewBox="0 0 250 250" version="1.1" xmlns="http://www.w3.org/2000/svg">
<g id="#feffffff">
<path fill="#feffff" opacity="1.00" d=" M 0.00 0.00 L 250.00 0.00 L 250.00 250.00 L 0.00 250.00 L 0.00 0.00 M 117.89 41.96 C 114.42 47.85 122.25 57.37 125.00 62.81 C 127.85 57.21 135.47 47.96 132.20 42.05 C 131.18 37.87 128.09 34.53 125.88 30.95 C 121.50 32.05 118.57 37.68 117.89 41.96 M 94.98 47.88 C 95.02 48.61 95.11 50.05 95.15 50.77 C 92.45 65.49 107.25 71.50 117.25 77.77 C 116.73 83.10 116.91 88.47 117.08 93.80 C 116.56 100.60 117.92 107.98 116.30 114.29 C 110.75 115.13 104.49 116.19 101.87 122.17 C 99.60 126.56 101.19 132.07 102.28 136.70 C 101.89 141.22 102.01 145.78 102.31 150.32 C 100.43 155.09 96.83 158.90 94.23 163.27 C 98.05 164.93 101.95 166.46 105.90 167.81 C 109.69 159.62 117.35 153.78 119.99 145.03 C 121.96 144.13 121.37 140.17 121.98 138.02 C 124.26 119.49 122.60 96.84 122.75 76.74 C 123.38 71.72 122.54 66.58 120.77 61.86 C 119.36 58.32 114.63 56.67 111.21 55.37 C 105.38 53.73 100.22 50.67 94.98 47.88 M 153.38 48.42 C 148.79 52.76 142.27 53.64 136.77 56.33 C 132.02 57.29 128.68 61.32 127.98 66.08 C 127.17 68.20 126.84 70.48 127.24 72.74 C 127.24 93.88 125.90 117.39 127.97 137.04 C 127.99 137.57 128.01 138.63 128.02 139.16 C 129.78 150.48 139.41 157.85 144.09 167.82 C 147.93 166.15 151.87 164.73 155.95 163.74 C 153.37 159.16 149.42 155.38 147.74 150.28 C 148.06 145.76 147.98 141.23 147.79 136.72 C 151.84 128.73 148.70 116.76 138.90 115.24 C 130.50 117.49 133.57 108.38 132.97 104.28 C 133.19 100.95 132.89 97.61 132.60 94.31 C 133.45 88.84 132.93 83.27 132.75 77.77 C 142.70 71.56 157.72 65.35 154.79 50.74 C 155.06 49.28 155.57 46.89 153.38 48.42 M 114.83 170.91 C 115.65 173.69 114.50 179.69 117.97 181.05 C 119.87 185.63 122.62 191.07 124.98 194.83 C 127.58 190.78 130.42 184.83 132.96 179.92 C 135.65 178.11 135.74 169.22 134.03 167.99 C 133.27 162.50 129.48 157.09 124.95 154.00 C 119.68 157.76 116.03 164.40 114.83 170.91 M 80.00 156.03 C 79.72 163.99 79.72 173.82 85.03 180.01 C 85.90 181.39 86.68 182.93 87.95 184.00 C 88.58 201.03 102.64 217.97 120.15 219.02 C 113.58 212.10 106.40 204.90 104.83 195.04 C 106.45 195.99 107.96 197.34 109.82 197.75 C 114.08 201.73 119.49 204.40 122.99 209.19 C 122.77 205.01 121.60 199.88 119.00 196.87 C 118.25 193.54 115.81 189.65 113.20 188.15 C 108.98 182.42 101.59 180.84 95.11 178.89 C 86.13 174.66 81.11 164.34 80.00 156.03 M 161.26 174.28 C 156.25 180.11 147.63 179.25 141.90 183.90 C 137.28 186.03 133.94 190.35 131.95 194.93 C 128.72 198.55 127.78 204.32 127.00 209.17 C 131.49 203.06 138.75 200.10 144.22 195.12 L 145.16 195.07 C 143.98 204.88 136.33 212.20 129.89 219.01 C 147.37 218.07 161.45 200.88 162.03 183.96 C 169.19 177.08 170.77 166.34 170.04 156.82 C 167.90 162.53 167.26 170.34 161.26 174.28 Z" />
</g>
<g id="#4281ffff">
<path fill="#4281ff" opacity="1.00" d=" M 117.89 41.96 C 118.57 37.68 121.50 32.05 125.88 30.95 C 128.09 34.53 131.18 37.87 132.20 42.05 C 133.58 49.78 114.72 50.57 117.89 41.96 Z" />
</g>
<g id="#39abffff">
<path fill="#39abff" opacity="1.00" d=" M 125.00 62.81 C 122.25 57.37 114.42 47.85 117.89 41.96 C 114.72 50.57 133.58 49.78 132.20 42.05 C 135.47 47.96 127.85 57.21 125.00 62.81 Z" />
</g>
<g id="#1fcfffff">
<path fill="#1fcfff" opacity="1.00" d=" M 94.98 47.88 C 100.22 50.67 105.38 53.73 111.21 55.37 C 108.44 57.82 105.42 59.98 101.99 61.39 C 98.38 58.91 96.96 54.56 95.15 50.77 C 95.11 50.05 95.02 48.61 94.98 47.88 Z" />
</g>
<g id="#1ed2ffff">
<path fill="#1ed2ff" opacity="1.00" d=" M 153.38 48.42 C 155.57 46.89 155.06 49.28 154.79 50.74 C 153.88 55.49 150.86 59.47 147.08 62.37 C 143.08 61.54 139.93 58.74 136.77 56.33 C 142.27 53.64 148.79 52.76 153.38 48.42 Z" />
</g>
<g id="#4774ffff">
<path fill="#4774ff" opacity="1.00" d=" M 95.15 50.77 C 96.96 54.56 98.38 58.91 101.99 61.39 C 107.53 65.24 115.31 66.51 120.77 61.86 C 122.54 66.58 123.38 71.72 122.75 76.74 C 121.93 82.86 122.04 89.03 122.01 95.19 C 120.44 95.74 118.81 95.89 117.75 94.37 C 117.54 88.91 118.83 83.03 117.25 77.77 C 107.25 71.50 92.45 65.49 95.15 50.77 Z" />
</g>
<g id="#457affff">
<path fill="#457aff" opacity="1.00" d=" M 147.08 62.37 C 150.86 59.47 153.88 55.49 154.79 50.74 C 157.72 65.35 142.70 71.56 132.75 77.77 C 131.15 83.06 132.21 88.86 132.60 94.31 C 132.89 97.61 133.19 100.95 132.97 104.28 C 131.32 104.29 129.67 104.16 128.03 104.05 C 127.86 93.61 128.52 83.12 127.24 72.74 C 126.84 70.48 127.17 68.20 127.98 66.08 C 134.45 70.16 140.89 64.30 147.08 62.37 Z" />
</g>
<g id="#30a2ffff">
<path fill="#30a2ff" opacity="1.00" d=" M 111.21 55.37 C 114.63 56.67 119.36 58.32 120.77 61.86 C 115.31 66.51 107.53 65.24 101.99 61.39 C 105.42 59.98 108.44 57.82 111.21 55.37 Z" />
</g>
<g id="#2ca7ffff">
<path fill="#2ca7ff" opacity="1.00" d=" M 127.98 66.08 C 128.68 61.32 132.02 57.29 136.77 56.33 C 139.93 58.74 143.08 61.54 147.08 62.37 C 140.89 64.30 134.45 70.16 127.98 66.08 Z" />
</g>
<g id="#bcd9ffff">
<path fill="#bcd9ff" opacity="1.00" d=" M 127.24 72.74 C 128.52 83.12 127.86 93.61 128.03 104.05 C 127.94 115.04 128.05 126.04 127.97 137.04 C 125.90 117.39 127.24 93.88 127.24 72.74 Z" />
</g>
<g id="#95c4ffff">
<path fill="#95c4ff" opacity="1.00" d=" M 122.01 95.19 C 122.04 89.03 121.93 82.86 122.75 76.74 C 122.60 96.84 124.26 119.49 121.98 138.02 C 122.00 133.01 122.04 128.01 121.98 123.00 C 122.01 113.73 122.03 104.46 122.01 95.19 Z" />
</g>
<g id="#94b6ffff">
<path fill="#94b6ff" opacity="1.00" d=" M 117.25 77.77 C 118.83 83.03 117.54 88.91 117.75 94.37 L 117.08 93.80 C 116.91 88.47 116.73 83.10 117.25 77.77 Z" />
<path fill="#94b6ff" opacity="1.00" d=" M 132.60 94.31 C 132.21 88.86 131.15 83.06 132.75 77.77 C 132.93 83.27 133.45 88.84 132.60 94.31 Z" />
</g>
<g id="#3799ffff">
<path fill="#3799ff" opacity="1.00" d=" M 117.08 93.80 L 117.75 94.37 C 118.81 95.89 120.44 95.74 122.01 95.19 C 122.03 104.46 122.01 113.73 121.98 123.00 C 115.31 122.65 108.40 123.99 101.87 122.17 C 104.49 116.19 110.75 115.13 116.30 114.29 C 117.92 107.98 116.56 100.60 117.08 93.80 Z" />
</g>
<g id="#2ea4ffff">
<path fill="#2ea4ff" opacity="1.00" d=" M 128.03 104.05 C 129.67 104.16 131.32 104.29 132.97 104.28 C 133.57 108.38 130.50 117.49 138.90 115.24 C 148.70 116.76 151.84 128.73 147.79 136.72 C 147.54 137.28 147.05 138.40 146.80 138.96 C 140.54 138.86 134.27 139.71 128.02 139.16 C 128.01 138.63 127.99 137.57 127.97 137.04 C 128.05 126.04 127.94 115.04 128.03 104.05 Z" />
</g>
<g id="#29abffff">
<path fill="#29abff" opacity="1.00" d=" M 101.87 122.17 C 108.40 123.99 115.31 122.65 121.98 123.00 C 122.04 128.01 122.00 133.01 121.98 138.02 C 121.37 140.17 121.96 144.13 119.99 145.03 C 114.89 143.31 103.45 149.04 103.32 140.74 C 103.01 139.38 102.67 138.03 102.28 136.70 C 101.19 132.07 99.60 126.56 101.87 122.17 Z" />
</g>
<g id="#b6e6ffff">
<path fill="#b6e6ff" opacity="1.00" d=" M 102.28 136.70 C 102.67 138.03 103.01 139.38 103.32 140.74 C 103.10 143.92 103.44 147.27 102.31 150.32 C 102.01 145.78 101.89 141.22 102.28 136.70 Z" />
</g>
<g id="#b7e7ffff">
<path fill="#b7e7ff" opacity="1.00" d=" M 146.80 138.96 C 147.05 138.40 147.54 137.28 147.79 136.72 C 147.98 141.23 148.06 145.76 147.74 150.28 C 147.25 146.52 146.93 142.75 146.80 138.96 Z" />
</g>
<g id="#25bfffff">
<path fill="#25bfff" opacity="1.00" d=" M 128.02 139.16 C 134.27 139.71 140.54 138.86 146.80 138.96 C 146.93 142.75 147.25 146.52 147.74 150.28 C 149.42 155.38 153.37 159.16 155.95 163.74 C 151.87 164.73 147.93 166.15 144.09 167.82 C 139.41 157.85 129.78 150.48 128.02 139.16 Z" />
</g>
<g id="#24c2ffff">
<path fill="#24c2ff" opacity="1.00" d=" M 103.32 140.74 C 103.45 149.04 114.89 143.31 119.99 145.03 C 117.35 153.78 109.69 159.62 105.90 167.81 C 101.95 166.46 98.05 164.93 94.23 163.27 C 96.83 158.90 100.43 155.09 102.31 150.32 C 103.44 147.27 103.10 143.92 103.32 140.74 Z" />
</g>
<g id="#497cffff">
<path fill="#497cff" opacity="1.00" d=" M 114.83 170.91 C 116.03 164.40 119.68 157.76 124.95 154.00 C 129.48 157.09 133.27 162.50 134.03 167.99 C 127.64 169.02 120.83 168.17 114.83 170.91 Z" />
</g>
<g id="#20f4ffff">
<path fill="#20f4ff" opacity="1.00" d=" M 80.00 156.03 C 81.11 164.34 86.13 174.66 95.11 178.89 C 91.72 179.08 88.37 179.48 85.03 180.01 C 79.72 173.82 79.72 163.99 80.00 156.03 Z" />
</g>
<g id="#1cecffff">
<path fill="#1cecff" opacity="1.00" d=" M 161.26 174.28 C 167.26 170.34 167.90 162.53 170.04 156.82 C 170.77 166.34 169.19 177.08 162.03 183.96 C 161.61 184.24 160.76 184.81 160.34 185.10 C 154.27 183.85 148.06 183.93 141.90 183.90 C 147.63 179.25 156.25 180.11 161.26 174.28 Z" />
</g>
<g id="#3796ffff">
<path fill="#3796ff" opacity="1.00" d=" M 114.83 170.91 C 120.83 168.17 127.64 169.02 134.03 167.99 C 135.74 169.22 135.65 178.11 132.96 179.92 C 127.94 179.90 122.94 180.37 117.97 181.05 C 114.50 179.69 115.65 173.69 114.83 170.91 Z" />
</g>
<g id="#22c4ffff">
<path fill="#22c4ff" opacity="1.00" d=" M 85.03 180.01 C 88.37 179.48 91.72 179.08 95.11 178.89 C 101.59 180.84 108.98 182.42 113.20 188.15 C 106.75 188.60 100.30 188.15 93.85 188.11 C 91.78 186.89 89.85 185.46 87.95 184.00 C 86.68 182.93 85.90 181.39 85.03 180.01 Z" />
</g>
<g id="#32b6ffff">
<path fill="#32b6ff" opacity="1.00" d=" M 117.97 181.05 C 122.94 180.37 127.94 179.90 132.96 179.92 C 130.42 184.83 127.58 190.78 124.98 194.83 C 122.62 191.07 119.87 185.63 117.97 181.05 Z" />
</g>
<g id="#721cffff">
<path fill="#721cff" opacity="1.00" d=" M 87.95 184.00 C 89.85 185.46 91.78 186.89 93.85 188.11 C 97.53 190.40 101.26 192.59 104.83 195.04 C 106.40 204.90 113.58 212.10 120.15 219.02 C 102.64 217.97 88.58 201.03 87.95 184.00 Z" />
<path fill="#721cff" opacity="1.00" d=" M 160.34 185.10 C 160.76 184.81 161.61 184.24 162.03 183.96 C 161.45 200.88 147.37 218.07 129.89 219.01 C 136.33 212.20 143.98 204.88 145.16 195.07 C 150.06 191.51 155.68 189.01 160.34 185.10 Z" />
</g>
<g id="#22bdffff">
<path fill="#22bdff" opacity="1.00" d=" M 131.95 194.93 C 133.94 190.35 137.28 186.03 141.90 183.90 C 148.06 183.93 154.27 183.85 160.34 185.10 C 155.68 189.01 150.06 191.51 145.16 195.07 L 144.22 195.12 C 140.13 195.05 136.04 194.98 131.95 194.93 Z" />
</g>
<g id="#339affff">
<path fill="#339aff" opacity="1.00" d=" M 93.85 188.11 C 100.30 188.15 106.75 188.60 113.20 188.15 C 115.81 189.65 118.25 193.54 119.00 196.87 C 115.92 197.03 112.84 197.15 109.82 197.75 C 107.96 197.34 106.45 195.99 104.83 195.04 C 101.26 192.59 97.53 190.40 93.85 188.11 Z" />
</g>
<g id="#3f9bffff">
<path fill="#3f9bff" opacity="1.00" d=" M 127.00 209.17 C 127.78 204.32 128.72 198.55 131.95 194.93 C 136.04 194.98 140.13 195.05 144.22 195.12 C 138.75 200.10 131.49 203.06 127.00 209.17 Z" />
</g>
<g id="#527cffff">
<path fill="#527cff" opacity="1.00" d=" M 109.82 197.75 C 112.84 197.15 115.92 197.03 119.00 196.87 C 121.60 199.88 122.77 205.01 122.99 209.19 C 119.49 204.40 114.08 201.73 109.82 197.75 Z" />
</g>
</svg>

<?xml version="1.0" encoding="utf-8"?>
<!-- Generator: Adobe Illustrator 26.0.3, SVG Export Plug-In . SVG Version: 6.00 Build 0)  -->
<svg version="1.1" id="Layer_1" xmlns="http://www.w3.org/2000/svg" xmlns:xlink="http://www.w3.org/1999/xlink" x="0px" y="0px"
	 viewBox="0 0 250 250" style="enable-background:new 0 0 250 250;" xml:space="preserve">
<style type="text/css">
	.st0{fill:#4281FF;}
	.st1{fill:#39ABFF;}
	.st2{fill:#1FCFFF;}
	.st3{fill:#1ED2FF;}
	.st4{fill:#4774FF;}
	.st5{fill:#457AFF;}
	.st6{fill:#30A2FF;}
	.st7{fill:#2CA7FF;}
	.st8{fill:#BCD9FF;}
	.st9{fill:#95C4FF;}
	.st10{fill:#94B6FF;}
	.st11{fill:#3799FF;}
	.st12{fill:#2EA4FF;}
	.st13{fill:#29ABFF;}
	.st14{fill:#B6E6FF;}
	.st15{fill:#B7E7FF;}
	.st16{fill:#25BFFF;}
	.st17{fill:#24C2FF;}
	.st18{fill:#497CFF;}
	.st19{fill:#20F4FF;}
	.st20{fill:#1CECFF;}
	.st21{fill:#3796FF;}
	.st22{fill:#22C4FF;}
	.st23{fill:#32B6FF;}
	.st24{fill:#721CFF;}
	.st25{fill:#22BDFF;}
	.st26{fill:#339AFF;}
	.st27{fill:#3F9BFF;}
	.st28{fill:#527CFF;}
</style>
<g id="_x23_4281ffff">
	<path class="st0" d="M117.9,42c0.7-4.3,3.6-9.9,8-11c2.2,3.6,5.3,6.9,6.3,11.1C133.6,49.8,114.7,50.6,117.9,42z"/>
</g>
<g id="_x23_39abffff">
	<path class="st1" d="M125,62.8c-2.8-5.4-10.6-15-7.1-20.9c-3.2,8.6,15.7,7.8,14.3,0.1C135.5,48,127.8,57.2,125,62.8z"/>
</g>
<g id="_x23_1fcfffff">
	<path class="st2" d="M95,47.9c5.2,2.8,10.4,5.8,16.2,7.5c-2.8,2.5-5.8,4.6-9.2,6c-3.6-2.5-5-6.8-6.8-10.6C95.1,50,95,48.6,95,47.9z
		"/>
</g>
<g id="_x23_1ed2ffff">
	<path class="st3" d="M153.4,48.4c2.2-1.5,1.7,0.9,1.4,2.3c-0.9,4.8-3.9,8.7-7.7,11.6c-4-0.8-7.2-3.6-10.3-6
		C142.3,53.6,148.8,52.8,153.4,48.4z"/>
</g>
<g id="_x23_4774ffff">
	<path class="st4" d="M95.2,50.8c1.8,3.8,3.2,8.1,6.8,10.6c5.5,3.8,13.3,5.1,18.8,0.5c1.8,4.7,2.6,9.9,2,14.9
		c-0.8,6.1-0.7,12.3-0.7,18.5c-1.6,0.5-3.2,0.7-4.3-0.8c-0.2-5.5,1.1-11.3-0.5-16.6C107.2,71.5,92.4,65.5,95.2,50.8z"/>
</g>
<g id="_x23_457affff">
	<path class="st5" d="M147.1,62.4c3.8-2.9,6.8-6.9,7.7-11.6c2.9,14.6-12.1,20.8-22,27c-1.6,5.3-0.5,11.1-0.1,16.5
		c0.3,3.3,0.6,6.6,0.4,10c-1.6,0-3.3-0.1-4.9-0.2c-0.2-10.4,0.5-20.9-0.8-31.3c-0.4-2.3-0.1-4.5,0.7-6.7
		C134.4,70.2,140.9,64.3,147.1,62.4z"/>
</g>
<g id="_x23_30a2ffff">
	<path class="st6" d="M111.2,55.4c3.4,1.3,8.2,3,9.6,6.5c-5.5,4.7-13.2,3.4-18.8-0.5C105.4,60,108.4,57.8,111.2,55.4z"/>
</g>
<g id="_x23_2ca7ffff">
	<path class="st7" d="M128,66.1c0.7-4.8,4-8.8,8.8-9.8c3.2,2.4,6.3,5.2,10.3,6C140.9,64.3,134.4,70.2,128,66.1z"/>
</g>
<g id="_x23_bcd9ffff">
	<path class="st8" d="M127.2,72.7c1.3,10.4,0.6,20.9,0.8,31.3c-0.1,11,0,22-0.1,33C125.9,117.4,127.2,93.9,127.2,72.7z"/>
</g>
<g id="_x23_95c4ffff">
	<path class="st9" d="M122,95.2c0-6.2-0.1-12.3,0.7-18.5c-0.2,20.1,1.5,42.8-0.8,61.3c0-5,0.1-10,0-15C122,113.7,122,104.5,122,95.2
		z"/>
</g>
<g id="_x23_94b6ffff">
	<path class="st10" d="M117.2,77.8c1.6,5.3,0.3,11.1,0.5,16.6l-0.7-0.6C116.9,88.5,116.7,83.1,117.2,77.8z"/>
	<path class="st10" d="M132.6,94.3c-0.4-5.4-1.5-11.2,0.1-16.5C132.9,83.3,133.4,88.8,132.6,94.3z"/>
</g>
<g id="_x23_3799ffff">
	<path class="st11" d="M117.1,93.8l0.7,0.6c1.1,1.5,2.7,1.4,4.3,0.8c0,9.3,0,18.5,0,27.8c-6.7-0.3-13.6,1-20.1-0.8
		c2.6-6,8.9-7,14.4-7.9C117.9,108,116.6,100.6,117.1,93.8z"/>
</g>
<g id="_x23_2ea4ffff">
	<path class="st12" d="M128,104.1c1.6,0.1,3.3,0.2,4.9,0.2c0.6,4.1-2.5,13.2,5.9,11c9.8,1.5,12.9,13.5,8.9,21.5
		c-0.2,0.6-0.7,1.7-1,2.2c-6.3-0.1-12.5,0.8-18.8,0.2c0-0.5,0-1.6-0.1-2.1C128.1,126,127.9,115,128,104.1z"/>
</g>
<g id="_x23_29abffff">
	<path class="st13" d="M101.9,122.2c6.5,1.8,13.4,0.5,20.1,0.8c0.1,5,0,10,0,15c-0.6,2.1,0,6.1-2,7c-5.1-1.7-16.5,4-16.7-4.3
		c-0.3-1.4-0.7-2.7-1-4C101.2,132.1,99.6,126.6,101.9,122.2z"/>
</g>
<g id="_x23_b6e6ffff">
	<path class="st14" d="M102.3,136.7c0.4,1.3,0.7,2.7,1,4c-0.2,3.2,0.1,6.5-1,9.6C102,145.8,101.9,141.2,102.3,136.7z"/>
</g>
<g id="_x23_b7e7ffff">
	<path class="st15" d="M146.8,139c0.2-0.6,0.7-1.7,1-2.2c0.2,4.5,0.3,9,0,13.6C147.2,146.5,146.9,142.8,146.8,139z"/>
</g>
<g id="_x23_25bfffff">
	<path class="st16" d="M128,139.2c6.2,0.6,12.5-0.3,18.8-0.2c0.1,3.8,0.4,7.6,0.9,11.3c1.7,5.1,5.6,8.9,8.2,13.5
		c-4.1,1-8,2.4-11.9,4.1C139.4,157.9,129.8,150.5,128,139.2z"/>
</g>
<g id="_x23_24c2ffff">
	<path class="st17" d="M103.3,140.7c0.1,8.3,11.6,2.6,16.7,4.3c-2.6,8.8-10.3,14.6-14.1,22.8c-4-1.3-7.8-2.9-11.7-4.5
		c2.6-4.4,6.2-8.2,8.1-12.9C103.4,147.3,103.1,143.9,103.3,140.7z"/>
</g>
<g id="_x23_497cffff">
	<path class="st18" d="M114.8,170.9c1.2-6.5,4.8-13.2,10.1-16.9c4.5,3.1,8.3,8.5,9.1,14C127.6,169,120.8,168.2,114.8,170.9z"/>
</g>
<g id="_x23_20f4ffff">
	<path class="st19" d="M80,156c1.1,8.3,6.1,18.6,15.1,22.9c-3.4,0.2-6.7,0.6-10.1,1.1C79.7,173.8,79.7,164,80,156z"/>
</g>
<g id="_x23_1cecffff">
	<path class="st20" d="M161.3,174.3c6-3.9,6.6-11.8,8.8-17.5c0.7,9.5-0.8,20.3-8,27.1c-0.4,0.3-1.3,0.8-1.7,1.1
		c-6.1-1.2-12.3-1.2-18.4-1.2C147.6,179.2,156.2,180.1,161.3,174.3z"/>
</g>
<g id="_x23_3796ffff">
	<path class="st21" d="M114.8,170.9c6-2.7,12.8-1.9,19.2-2.9c1.7,1.2,1.6,10.1-1.1,11.9c-5,0-10,0.4-15,1.1
		C114.5,179.7,115.7,173.7,114.8,170.9z"/>
</g>
<g id="_x23_22c4ffff">
	<path class="st22" d="M85,180c3.3-0.5,6.7-0.9,10.1-1.1c6.5,1.9,13.9,3.5,18.1,9.3c-6.4,0.5-12.9,0-19.3,0c-2.1-1.2-4-2.6-5.9-4.1
		C86.7,182.9,85.9,181.4,85,180z"/>
</g>
<g id="_x23_32b6ffff">
	<path class="st23" d="M118,181.1c5-0.7,10-1.2,15-1.1c-2.5,4.9-5.4,10.9-8,14.9C122.6,191.1,119.9,185.6,118,181.1z"/>
</g>
<g id="_x23_721cffff">
	<path class="st24" d="M87.9,184c1.9,1.5,3.8,2.9,5.9,4.1c3.7,2.3,7.4,4.5,11,6.9c1.6,9.9,8.8,17.1,15.3,24
		C102.6,218,88.6,201,87.9,184z"/>
	<path class="st24" d="M160.3,185.1c0.4-0.3,1.3-0.9,1.7-1.1c-0.6,16.9-14.7,34.1-32.1,35c6.4-6.8,14.1-14.1,15.3-23.9
		C150.1,191.5,155.7,189,160.3,185.1z"/>
</g>
<g id="_x23_22bdffff">
	<path class="st25" d="M131.9,194.9c2-4.6,5.3-8.9,9.9-11c6.2,0,12.4,0,18.4,1.2c-4.7,3.9-10.3,6.4-15.2,10l-0.9,0
		C140.1,195.1,136,195,131.9,194.9z"/>
</g>
<g id="_x23_339affff">
	<path class="st26" d="M93.8,188.1c6.5,0,12.9,0.5,19.3,0c2.6,1.5,5.1,5.4,5.8,8.7c-3.1,0.2-6.2,0.3-9.2,0.9c-1.9-0.4-3.4-1.8-5-2.7
		C101.3,192.6,97.5,190.4,93.8,188.1z"/>
</g>
<g id="_x23_3f9bffff">
	<path class="st27" d="M127,209.2c0.8-4.8,1.7-10.6,4.9-14.2c4.1,0.1,8.2,0.1,12.3,0.2C138.8,200.1,131.5,203.1,127,209.2z"/>
</g>
<g id="_x23_527cffff">
	<path class="st28" d="M109.8,197.8c3-0.6,6.1-0.7,9.2-0.9c2.6,3,3.8,8.1,4,12.3C119.5,204.4,114.1,201.7,109.8,197.8z"/>
</g>
</svg>
